assets/Slot machine/Flat/slot_machine_flat.svg

<svg width="32" height="32" viewBox="0 0 32 32" fill="none" xmlns="http://www.w3.org/2000/svg">
<path d="M26 9.00003L14.0196 7.82312L2 9.00003V23L14.0196 25.2023L26 23V19L27.2657 15.4445L26 12V9.00003Z" fill="#E1D8EC"/>
<path d="M23.4261 5H4.58386C3.16274 5 2 6.04037 2 7.33185V9H26V7.33185C26 6.04037 24.8472 5 23.4261 5Z" fill="#B4ACBC"/>
<path d="M28.5 6.99072C28.7758 6.99072 28.9993 7.21427 28.9993 7.49002V13H29.3547C29.717 13 30 13.2515 30 13.5734V17.4266C30 17.7384 29.717 18 29.3547 18H27V18.7123C27 18.8657 26.8898 19 26.7457 19H26V12H26.7457C26.8898 12 27 12.1343 27 12.2877V13H28.0007V7.49002C28.0007 7.21427 28.2242 6.99072 28.5 6.99072Z" fill="#B4ACBC"/>
<path d="M24.4994 30H3.5006C2.67576 30 2 29.3123 2 28.4501V23H26V28.4501C25.9901 29.302 25.3242 30 24.4994 30Z" fill="#B4ACBC"/>
<path d="M4.42621 10.5H23.5738C24.3628 10.5 25 11.1335 25 11.9177V20.0823C25 20.8665 24.3628 21.5 23.5738 21.5H4.42621C3.63725 21.5 3 20.8665 3 20.0823V11.9177C3 11.1335 3.63725 10.5 4.42621 10.5Z" fill="#433B6B"/>
<path d="M6 24.5541C6 24.2519 6.25742 24 6.5663 24H21.4337C21.7426 24 22 24.2519 22 24.5541V25.3199C22 26.801 20.7748 28 19.2613 28H8.73874C7.22523 28 6 26.801 6 25.3199V24.5541Z" fill="#433B6B"/>
<path d="M9.08375 11.5H4.91625C4.40393 11.5 4 11.93 4 12.4522V19.5478C4 20.0802 4.41379 20.5 4.91625 20.5H9.08375C9.59607 20.5 10 20.07 10 19.5478V12.4522C10 11.93 9.58621 11.5 9.08375 11.5Z" fill="#F4F4F4"/>
<path d="M16.0838 11.5H11.9162C11.4039 11.5 11 11.93 11 12.4522V19.5478C11 20.0802 11.4138 20.5 11.9162 20.5H16.0838C16.5961 20.5 17 20.07 17 19.5478V12.4522C17 11.93 16.5862 11.5 16.0838 11.5Z" fill="#F4F4F4"/>
<path d="M23.0838 11.5H18.9163C18.404 11.5 18 11.93 18 12.4522V19.5478C18 20.0802 18.4138 20.5 18.9163 20.5H23.0838C23.5961 20.5 24 20.07 24 19.5478V12.4522C24 11.93 23.5862 11.5 23.0838 11.5Z" fill="#F4F4F4"/>
<path d="M5.75 11.5V11.5099C5.75 12.1944 6.31 12.75 7 12.75C7.69 12.75 8.25 12.1944 8.25 11.5099V11.5H5.75Z" fill="#00A6ED"/>
<path d="M12.75 11.5V11.5099C12.75 12.1944 13.31 12.75 14 12.75C14.69 12.75 15.25 12.1944 15.25 11.5099V11.5H12.75Z" fill="#00A6ED"/>
<path d="M19.75 11.5099V11.5H22.25V11.5099C22.25 12.1944 21.69 12.75 21 12.75C20.31 12.75 19.75 12.1944 19.75 11.5099Z" fill="#00A6ED"/>
<path d="M8.25 20.5V20.4901C8.25 19.8056 7.69 19.25 7 19.25C6.31 19.25 5.75 19.8056 5.75 20.4901V20.5H8.25Z" fill="#F9C23C"/>
<path d="M15.25 20.5V20.4901C15.25 19.8056 14.69 19.25 14 19.25C13.31 19.25 12.75 19.8056 12.75 20.4901V20.5H15.25Z" fill="#F9C23C"/>
<path d="M22.25 20.4901V20.5H19.75V20.4901C19.75 19.8056 20.31 19.25 21 19.25C21.69 19.25 22.25 19.8056 22.25 20.4901Z" fill="#F9C23C"/>
<path d="M29.9999 6.5C29.9999 7.32843 29.3283 8 28.4999 8C27.6714 8 26.9999 7.32843 26.9999 6.5C26.9999 5.67157 27.6714 5 28.4999 5C29.3283 5 29.9999 5.67157 29.9999 6.5Z" fill="#F8312F"/>
<path d="M5.89568 14.0265C5.5676 14.0265 5.27637 14.2823 5.27637 14.6405V15.092C5.27637 15.3535 5.48836 15.5655 5.74987 15.5655C6.01137 15.5655 6.22337 15.3535 6.22337 15.092V14.9735H7.71938L6.5174 17.2813C6.39661 17.5132 6.4867 17.7991 6.71863 17.9199C6.95056 18.0407 7.23651 17.9507 7.35731 17.7187L8.91982 14.7187C8.99627 14.5719 8.99053 14.3959 8.90469 14.2544C8.81885 14.1129 8.66536 14.0265 8.49987 14.0265H5.89568Z" fill="#F8312F"/>
<path d="M12.2764 14.6405C12.2764 14.2823 12.5676 14.0265 12.8957 14.0265H15.4999C15.6654 14.0265 15.8189 14.1129 15.9047 14.2544C15.9905 14.3959 15.9963 14.5719 15.9198 14.7187L14.3573 17.7187C14.2365 17.9507 13.9506 18.0407 13.7186 17.9199C13.4867 17.7991 13.3966 17.5132 13.5174 17.2813L14.7194 14.9735H13.2234V15.092C13.2234 15.3535 13.0114 15.5655 12.7499 15.5655C12.4884 15.5655 12.2764 15.3535 12.2764 15.092V14.6405Z" fill="#F8312F"/>
<path d="M19.8957 14.0265C19.5676 14.0265 19.2764 14.2823 19.2764 14.6405V15.092C19.2764 15.3535 19.4884 15.5655 19.7499 15.5655C20.0114 15.5655 20.2234 15.3535 20.2234 15.092V14.9735H21.7194L20.5174 17.2813C20.3966 17.5132 20.4867 17.7991 20.7186 17.9199C20.9506 18.0407 21.2365 17.9507 21.3573 17.7187L22.9198 14.7187C22.9963 14.5719 22.9905 14.3959 22.9047 14.2544C22.8189 14.1129 22.6654 14.0265 22.4999 14.0265H19.8957Z" fill="#F8312F"/>
</svg>

<svg xmlns="http://www.w3.org/2000/svg" width="32" height="32" fill="none"><path fill="#E1D8EC" d="M26 9 14.02 7.823 2 9v14l12.02 2.202L26 23v-4l1.266-3.556L26 12V9Z"/><path fill="#B4ACBC" d="M23.426 5H4.584C3.163 5 2 6.04 2 7.332V9h24V7.332C26 6.04 24.847 5 23.426 5ZM28.5 6.99a.5.5 0 0 1 .5.5V13h.355c.362 0 .645.252.645.573v3.854c0 .311-.283.573-.645.573H27v.712c0 .154-.11.288-.254.288H26v-7h.746c.144 0 .254.134.254.288V13h1V7.49a.5.5 0 0 1 .5-.5ZM24.5 30h-21c-.824 0-1.5-.688-1.5-1.55V23h24v5.45c-.01.852-.676 1.55-1.5 1.55Z"/><path fill="#433B6B" d="M4.426 10.5h19.148A1.42 1.42 0 0 1 25 11.918v8.164a1.42 1.42 0 0 1-1.426 1.418H4.426A1.42 1.42 0 0 1 3 20.082v-8.164A1.42 1.42 0 0 1 4.426 10.5ZM6 24.554c0-.302.257-.554.566-.554h14.868c.309 0 .566.252.566.554v.766C22 26.8 20.775 28 19.261 28H8.74C7.225 28 6 26.801 6 25.32v-.766Z"/><path fill="#F4F4F4" d="M9.084 11.5H4.916c-.512 0-.916.43-.916.952v7.096c0 .532.414.952.916.952h4.168c.512 0 .916-.43.916-.952v-7.096c0-.522-.414-.952-.916-.952ZM16.084 11.5h-4.168c-.512 0-.916.43-.916.952v7.096c0 .532.414.952.916.952h4.168c.512 0 .916-.43.916-.952v-7.096c0-.522-.414-.952-.916-.952ZM23.084 11.5h-4.168c-.512 0-.916.43-.916.952v7.096c0 .532.414.952.916.952h4.168c.512 0 .916-.43.916-.952v-7.096c0-.522-.414-.952-.916-.952Z"/><path fill="#00A6ED" d="M5.75 11.5v.01c0 .684.56 1.24 1.25 1.24s1.25-.556 1.25-1.24v-.01h-2.5ZM12.75 11.5v.01c0 .684.56 1.24 1.25 1.24s1.25-.556 1.25-1.24v-.01h-2.5ZM19.75 11.51v-.01h2.5v.01c0 .684-.56 1.24-1.25 1.24s-1.25-.556-1.25-1.24Z"/><path fill="#F9C23C" d="M8.25 20.5v-.01c0-.684-.56-1.24-1.25-1.24s-1.25.556-1.25 1.24v.01h2.5ZM15.25 20.5v-.01c0-.684-.56-1.24-1.25-1.24s-1.25.556-1.25 1.24v.01h2.5ZM22.25 20.49v.01h-2.5v-.01c0-.684.56-1.24 1.25-1.24s1.25.556 1.25 1.24Z"/><path fill="#F8312F" d="M30 6.5a1.5 1.5 0 1 1-3 0 1.5 1.5 0 0 1 3 0ZM5.896 14.027a.613.613 0 0 0-.62.614v.451a.474.474 0 0 0 .947 0v-.119H7.72l-1.202 2.308a.473.473 0 1 0 .84.438l1.563-3a.473.473 0 0 0-.42-.692H5.896ZM12.276 14.64c0-.358.292-.614.62-.614H15.5a.473.473 0 0 1 .42.693l-1.563 3a.473.473 0 1 1-.84-.438l1.202-2.307h-1.496v.118a.474.474 0 0 1-.947 0v-.452ZM19.896 14.027a.613.613 0 0 0-.62.614v.451a.474.474 0 0 0 .947 0v-.119h1.496l-1.202 2.308a.473.473 0 1 0 .84.438l1.563-3a.473.473 0 0 0-.42-.692h-2.604Z"/></svg>
